X:1
T:Title
%%score 1 { 2 | 3 }
L:1/8
Q:1/4=100
M:4/4
K:G
V:1 treble nm="Grand Piano, Soprano"
V:2 treble nm="Choir Pad, Let Us Sing of His Love"
V:3 bass 
V:1
 [DG]>[DA] [GB]2 [GB]>[GB] [GB]2 | [FA]>[FB] [DG]6 | [DF]>[DG] [FA]2 [FA]>[FA] [FA]2 | %3
w: By~William~James~Kirkpatrick * * * * *|||
 [DG]>[FA] [GB]6 | [GB]>[Gc] [Gd]2 [Gd]>[Gd] [Gd]2 | [DA]>[=FB] [Ec]6 | %6
w: |||
 [EB]>[EA] [DG]2 [DG]>[DG] [DG]2 | [DB]>[DA] [DG]6 | [GB]>[Ac] [Bd]6 | [Ac]>[GB] [Ac]6 | %10
w: ||||
 [GB]>[FA] [GB]2 [GB]>[GB] [GB]2 | [Gd]>[GB] [FA]6 | [GB]>[Ac] [Bd]6 | [GB]>[=Fd] [Ec]6 | %14
w: ||||
 [EB]>[EA] [DG]2 [DG]>[DG] [DG]2 | [DB]>[DA] [DG]6- | [DG]2 z2 z4 |] %17
w: |||
V:2
 B,>C D2 D>D D2 | C>D[K:bass] B,6 | A,>B, C2 C>[K:treble]C C2 | B,>D D6 | %4
 D>C[K:bass] B,2 B,>B, B,2 | A,>G, G,6 | G,>C B,2 B,>[K:treble]B, B,2 | D>C B,6 | z4 D>D D2 | %9
 z4 D>D D2 | D>D D2 D>D D2 | B,>D D6 | z4 D>D D2 | z4[K:bass] G,>G, G,2 | G,>C B,2 B,>B, B,2 | %15
 D>C B,6- | B,2 z2 z4 |] %17
V:3
 G,>G, G,2 G,>G, G,2 | D,>D, G,,6 | D,>D, D,2 D,>D, D,2 | D,>D, G,6 | G,>G, G,2 G,>G, G,2 | %5
 F,2 C,6 | C,>C, D,2 D,>D, D,2 | D,>D, [G,,G,]6 | z4 G,>G, G,2 | z4 D,>D, D,2 | %10
 D,>D, G,2 G,>G, G,2 | G,>G, D,6 | z4 G,>G, G,2 | z4 C,>C, C,2 | C,>C, D,2 D,>D, D,2 | %15
 D,>D, [G,,G,]6- | [G,,G,]2 z2 z4 |] %17

